X: 134
T: The Green Park
%R: march, reel
B: Chas & Sam Thompson "Twenty Four Country Dances for the Year 1778", London 1778, p.67 #2
F: http://www.vwml.org/browse/browse-collections-dance-tune-books/browse-thompsons1778#
Z: 2014 John Chambers <jc:trillian.mit.edu> (added dance description)
M: 2/4
L: 1/8
K: F
% - - - - - - - - - - - - - - - - - - - - - - - - - - - - -
(A/B/) |\
c2AF | d2df | cBAG | F2 z(A/B/) |\
c2AF | f2fa | gfed | c3 :|
|: e/f/ |\
gabg | fedc | Bdgf | fedc |\
dBcA | Begb | afge | f3 :|
% - - - - - - - - - - Dance description - - - - - - - - - -
%%begintext align
%% Half Right and Left .|. back again :|.
%% cross over one Cu: .|: Right & Left :|:
%%endtext

%%sep 1 1 500
%%sep 1 1 500
